packages/kaspersky-hexa-ui-icons/src/iconsSVGs/24/Support.svg

<svg xmlns="http://www.w3.org/2000/svg" width="24" height="24" fill="none" viewBox="0 0 24 24"><path fill="#000" fill-rule="evenodd" d="M12 3c-3.866 0-7 3.134-7 7v.1707A3 3 0 0 1 6 10c1.6569 0 3 1.3431 3 3v2c0 1.6569-1.3431 3-3 3s-3-1.3431-3-3v-5c0-4.9706 4.0294-9 9-9s9 4.0294 9 9v9c0 1.6569-1.3431 3-3 3h-5c-.5523 0-1-.4477-1-1s.4477-1 1-1h5c.5523 0 1-.4477 1-1v-1.1707A3 3 0 0 1 18 18c-1.6569 0-3-1.3431-3-3v-2c0-1.6569 1.3431-3 3-3 .3506 0 .6872.0602 1 .1707V10c0-3.866-3.134-7-7-7m7 12v-2c0-.5523-.4477-1-1-1s-1 .4477-1 1v2c0 .5523.4477 1 1 1s1-.4477 1-1M5 15v-2c0-.5523.4477-1 1-1s1 .4477 1 1v2c0 .5523-.4477 1-1 1s-1-.4477-1-1"/></svg>

<svg width="24" height="24" viewBox="0 0 24 24" fill="none" xmlns="http://www.w3.org/2000/svg">
<path fill-rule="evenodd" clip-rule="evenodd" d="M12 3C8.13401 3 5 6.13401 5 10V10.1707C5.31278 10.0602 5.64936 10 6 10C7.65685 10 9 11.3431 9 13V15C9 16.6569 7.65685 18 6 18C4.34315 18 3 16.6569 3 15V10C3 5.02944 7.02944 1 12 1C16.9706 1 21 5.02944 21 10V19C21 20.6569 19.6569 22 18 22H13C12.4477 22 12 21.5523 12 21C12 20.4477 12.4477 20 13 20H18C18.5523 20 19 19.5523 19 19V17.8293C18.6872 17.9398 18.3506 18 18 18C16.3431 18 15 16.6569 15 15V13C15 11.3431 16.3431 10 18 10C18.3506 10 18.6872 10.0602 19 10.1707V10C19 6.13401 15.866 3 12 3ZM19 15V13C19 12.4477 18.5523 12 18 12C17.4477 12 17 12.4477 17 13V15C17 15.5523 17.4477 16 18 16C18.5523 16 19 15.5523 19 15ZM5 15V13C5 12.4477 5.44772 12 6 12C6.55228 12 7 12.4477 7 13V15C7 15.5523 6.55228 16 6 16C5.44772 16 5 15.5523 5 15Z" fill="black"/>
</svg>
